outputs/icons/content/redo_sharp.svg

<svg width="1200" height="1200" viewBox="0 0 1200 1200" fill="none" xmlns="http://www.w3.org/2000/svg"><g clip-path="url(#clip0_225_3297)"><path d="M920 530C827.5 449.5 707.5 400 575 400C342.502 400 146.002 551.5 77.002 761L195.002 800C247.502 640.5 397.502 525 575 525C672.5 525 761.5 561 831 619L650 800H1100V350L920 530Z" fill="black"/></g><defs><clipPath id="clip0_225_3297"><path width="24" fill="white" d="M0 0H1200V1200H0V0z"/></clipPath></defs></svg>

<svg xmlns="http://www.w3.org/2000/svg" width="1200" height="1200" fill="none"><g clip-path="url(#a)"><path fill="#000" d="M920 530c-92.5-80.5-212.5-130-345-130-232.498 0-428.998 151.5-497.998 361l118 39c52.5-159.5 202.5-275 379.998-275 97.5 0 186.5 36 256 94L650 800h450V350z"/></g><defs><clipPath id="a"><path fill="#fff" d="M0 0h1200v1200H0z"/></clipPath></defs></svg>
